X:4104
T:Connie's Jig
P:Connie's Jig
C:Muriel A. Johnstone
R:Jig (8x48) ABCABC
B:RSCDS 41-4
Z:Anselm Lingnau <anselm@strathspey.org>
M:6/8
L:1/8
K:D
A|"D"f2 f- faf|"G"gdB GBd|"D"A3 "Bm"f2d|"E7"efd "A7"cBA|\
  "D"f2 f- faf|"G"gdB GBd|
                          "D/F#"Aag "Bm"fed|"A7"ABc "D7"def||\
  "G"g2 g- gdB|gdB "D"AGF|"A/C#"E2 E "A7"GFE|"D"FAd "D7/F#"def|
  "G"g2 g- gdB|"D"gdA "Bm"FGA|"Em"Egf "A7"e<ac|"D"d>ed "D7/F#"def||\
  "G"g2 g- gdB|gdB "D"AGF|
                          "A/C#"E2 E- "A7"EDC|"D"DFA "D7/F#"d2A|\
  "G"BgB "A"cac|"Bm"Bba "A7/C#"gfe|"D"f<aA "G"bag|"A7"fge d2|]
